static/images/sponsors/helsing.svg

<svg fill="none" height="394" viewBox="0 0 1138 394" width="1138" xmlns="http://www.w3.org/2000/svg"><g fill="#000"><path d="m320 88.4v172.4h-24.3v-78.3h-90.6v78.3h-24.3v-172.4h24.3v73.3h90.6v-73.3z"/><path d="m343.8 197.1c0-40.4 25.9-66.4 61.4-66.4 39.5 0 61.8 32.8 59 73.3h-96.8c0 25.5 17.1 40.9 38.1 40.9 20 0 29.3-8.6 34.7-21.2h22.4c-5.9 22.1-25 40.2-56.6 40.2-41.1.1-62.2-29-62.2-66.8zm23.7-11.6h73.7c-.5-18.1-12.8-36.2-36.2-36.2-21.8 0-36.5 13.1-37.5 36.2z"/><path d="m508.6 260.9h-21.6v-172.5h21.6z"/><path d="m614.4 170.2c-3.3-15.2-15.2-21.2-31.2-21.2-13.6 0-27.8 4.5-27.8 16.2 0 10.2 7.1 14.5 20.5 17.4l18.1 3.6c24.3 4.8 44.7 13.3 44.7 38.1 0 25.2-22.8 39.7-53 39.7-34.5 0-53.5-22.1-55.9-44.5h22.8c3.3 16.4 13.6 26.2 33.5 26.2 17.4 0 30.7-7.1 30.7-19 0-12.8-12.1-18.3-26.9-21.2l-19-3.8c-18.3-3.8-37.3-11.7-37.3-35.4 0-22.6 22.8-35.7 52.1-35.7 28.5 0 47.3 15.5 51.4 39.7h-22.7z"/><path d="m684.1 88.4v26.2h-21.6v-26.2zm0 44.5v128h-21.6v-128z"/><path d="m737.4 152.2c7.4-12.1 19.7-21.4 41.4-21.4 30.9 0 42.1 20 42.1 49.2v80.9h-21.6v-74.4c0-19.7-3.3-36.9-28.1-36.9-20.9 0-33.8 14.5-33.8 41.9v69.5h-21.6v-128h21.6z"/><path d="m935.5 132.9h21.6v110.8c0 26.2-4.8 36.9-12.1 45-9.3 10.7-25.2 16.9-44.2 16.9-29 0-48.5-13.3-52.6-39.2h23.1c2.9 11.4 9.8 20.2 29.7 20.2 11.7 0 20.5-3.3 26.2-9.5 4.8-5 8.3-10.9 8.3-28.3v-12.1c-7.8 13.6-20.2 22.1-40.7 22.1-30.2 0-52.8-22.8-52.8-64 0-40.9 22.6-64 52.8-64 20.5 0 32.8 8.8 40.7 22.4zm-35.2 16.4c-23.1 0-34.7 16.4-34.7 45.4 0 29.3 11.7 45.7 34.7 45.7 19.3 0 36.2-13.1 36.2-45.7 0-32.3-16.9-45.4-36.2-45.4z"/></g></svg>

<svg width="1138" height="394" viewBox="0 0 1138 394" fill="none" xmlns="http://www.w3.org/2000/svg">
<path d="M320 88.4V260.8H295.7V182.5H205.1V260.8H180.8V88.4H205.1V161.7H295.7V88.4H320Z" fill="black"/>
<path d="M343.8 197.1C343.8 156.7 369.7 130.7 405.2 130.7C444.7 130.7 467 163.5 464.2 204H367.4C367.4 229.5 384.5 244.9 405.5 244.9C425.5 244.9 434.8 236.3 440.2 223.7H462.6C456.7 245.8 437.6 263.9 406 263.9C364.9 264 343.8 234.9 343.8 197.1ZM367.5 185.5H441.2C440.7 167.4 428.4 149.3 405 149.3C383.2 149.3 368.5 162.4 367.5 185.5Z" fill="black"/>
<path d="M508.6 260.9H487V88.4H508.6V260.9Z" fill="black"/>
<path d="M614.4 170.2C611.1 155 599.2 149 583.2 149C569.6 149 555.4 153.5 555.4 165.2C555.4 175.4 562.5 179.7 575.9 182.6L594 186.2C618.3 191 638.7 199.5 638.7 224.3C638.7 249.5 615.9 264 585.7 264C551.2 264 532.2 241.9 529.8 219.5H552.6C555.9 235.9 566.2 245.7 586.1 245.7C603.5 245.7 616.8 238.6 616.8 226.7C616.8 213.9 604.7 208.4 589.9 205.5L570.9 201.7C552.6 197.9 533.6 190 533.6 166.3C533.6 143.7 556.4 130.6 585.7 130.6C614.2 130.6 633 146.1 637.1 170.3H614.4V170.2Z" fill="black"/>
<path d="M684.1 88.4V114.6H662.5V88.4H684.1ZM684.1 132.9V260.9H662.5V132.9H684.1Z" fill="black"/>
<path d="M737.4 152.2C744.8 140.1 757.1 130.8 778.8 130.8C809.7 130.8 820.9 150.8 820.9 180V260.9H799.3V186.5C799.3 166.8 796 149.6 771.2 149.6C750.3 149.6 737.4 164.1 737.4 191.5V261H715.8V133H737.4V152.2Z" fill="black"/>
<path d="M935.5 132.9H957.1V243.7C957.1 269.9 952.3 280.6 945 288.7C935.7 299.4 919.8 305.6 900.8 305.6C871.8 305.6 852.3 292.3 848.2 266.4H871.3C874.2 277.8 881.1 286.6 901 286.6C912.7 286.6 921.5 283.3 927.2 277.1C932 272.1 935.5 266.2 935.5 248.8V236.7C927.7 250.3 915.3 258.8 894.8 258.8C864.6 258.8 842 236 842 194.8C842 153.9 864.6 130.8 894.8 130.8C915.3 130.8 927.6 139.6 935.5 153.2V132.9ZM900.3 149.3C877.2 149.3 865.6 165.7 865.6 194.7C865.6 224 877.3 240.4 900.3 240.4C919.6 240.4 936.5 227.3 936.5 194.7C936.5 162.4 919.6 149.3 900.3 149.3Z" fill="black"/>
</svg>
